static/images/icons/brunch.svg

<svg height="64" viewBox="0 0 64 64" width="64" xmlns="http://www.w3.org/2000/svg"><path d="m19.0682347 47.1917647c-.0764892-1.0218951-.3610288-2.1406763-1.4900086-3.1707302 0-.0020397-.0020397-.0020397-.0050993-.0040794-.0438538-.0407942-.0928068-.0836281-.1397202-.1244224-.007139-.0040794-.0112184-.0101985-.0163176-.0132581-1.5624184-1.4267775-2.8107213-4.1691685-2.8107213-7.0808554 0-4.0590241 1.7980049-15.5956273 2.1865698-15.5956273.3079963 0 .3141154 5.5643305.1101444 10.7951684-.1417599 3.6327246.3957038 5.0635816 1.2625808 5.0635816 1.1544763 0 1.3390701-3.6561813 1.4583931-7.7661982.0979061-3.3838799.3936642-8.0670555.6302706-8.0925518h.0010199c.3691876 0 .6741243 4.6535997.7730503 8.0456385.1223826 4.2120024.4140613 7.7090863 1.3788444 7.7090863 1.0127163 0 1.3207126-1.6174906 1.2493227-5.2084011-.0877075-4.3833381-.0887274-10.5463237.2192689-10.5463237.3885649 0 1.7072378 4.0498454 2.0254327 15.5956273.0805685 2.9096472-1.2483029 5.653058-2.8117411 7.0808554-.0050993.0040794-.0091787.0101986-.0163177.0132581-.0469134.0407943-.0958664.0836282-.1397202.1244224-.0020397.0020397-.0050993.0020397-.0050993.0040794-1.1299996 1.0300539-1.4135194 2.1488351-1.4910284 3.1707302-.1223827 1.6317685-.1774548 3.7224718-.1713357 6.075278l8.8992574 8.8992575c.1244223-3.8785098.1121841-7.5367308-.0591516-10.2984989-.0642509-1.0320936-.2223285-2.2304236-.4028429-3.186028-.056092-.3049368-.2519042-.5864168-.2519042-.8281225 0-3.3471652 0-31.5482041 0-33.6195303 0-2.8678331 2.685279-4.2232208 5.1553686 2.0713262 2.4700895 6.2945469 1.7806673 28.6803709 1.7806673 30.2723651 0 .3375721-.2926984.7363355-.7730503 1.1289798-.1917328.1244223-.3589891.2498645-.5201262.3783663-1.47981 1.1871116-1.6909201 2.5557574-1.7684291 3.7826434-.1845938 2.9698186-.3334927 6.9758103-.3722472 11.178634l12.2647799-12.2647799c-.0173375-1.4410556-.0571118-2.7372917-.1244223-3.8173185-.0254964-.4140612-.1285018-.8352615-.2070306-1.2788985-.2223285-1.2564618-1.7776078-2.2854958-2.6771202-3.1890876-1.748032-1.755171-2.8719126-4.7056124-2.8719126-8.0323804 0-5.4021735 2.9942952-12.2403034 6.6882112-12.2403034 3.6939159 0 6.6892309 6.83711 6.6892309 12.2403034 0 3.326768-1.1238805 6.2782293-2.8719125 8.0323804-.9005323.9035918-2.4558116 1.9326258-2.6781401 3.1890876-.0785288.4446569-.1815342.8648373-.2070306 1.2788985-.0407942.6496479-.07037 1.381904-.0928068 2.171272l17.134589-17.1356089-32-32-32 32 19.2273321 19.2273321c-.0214169-1.522644-.0734296-2.8933295-.1590974-4.0355674z" fill="#3f894a"/></svg>

<svg xmlns="http://www.w3.org/2000/svg" width="64" height="64" viewBox="0 0 64 64">
  <path fill="#3F894A" d="M19.0682347,47.1917647 C18.9917455,46.1698696 18.7072059,45.0510884 17.5782261,44.0210345 C17.5782261,44.0189948 17.5761864,44.0189948 17.5731268,44.0169551 C17.529273,43.9761609 17.48032,43.933327 17.4334066,43.8925327 C17.4262676,43.8884533 17.4221882,43.8823342 17.417089,43.8792746 C15.8546706,42.4524971 14.6063677,39.7101061 14.6063677,36.7984192 C14.6063677,32.7393951 16.4043726,21.2027919 16.7929375,21.2027919 C17.1009338,21.2027919 17.1070529,26.7671224 16.9030819,31.9979603 C16.761322,35.6306849 17.2987857,37.0615419 18.1656627,37.0615419 C19.320139,37.0615419 19.5047328,33.4053606 19.6240558,29.2953437 C19.7219619,25.9114638 20.01772,21.2282882 20.2543264,21.2027919 L20.2553463,21.2027919 C20.6245339,21.2027919 20.9294706,25.8563916 21.0283966,29.2484304 C21.1507792,33.4604328 21.4424579,36.9575167 22.407241,36.9575167 C23.4199573,36.9575167 23.7279536,35.3400261 23.6565637,31.7491156 C23.5688562,27.3657775 23.5678363,21.2027919 23.8758326,21.2027919 C24.2643975,21.2027919 25.5830704,25.2526373 25.9012653,36.7984192 C25.9818338,39.7080664 24.6529624,42.4514772 23.0895242,43.8792746 C23.0844249,43.883354 23.0803455,43.8894732 23.0732065,43.8925327 C23.0262931,43.933327 22.9773401,43.9761609 22.9334863,44.0169551 C22.9314466,44.0189948 22.928387,44.0189948 22.928387,44.0210345 C21.7983874,45.0510884 21.5148676,46.1698696 21.4373586,47.1917647 C21.3149759,48.8235332 21.2599038,50.9142365 21.2660229,53.2670427 L30.1652803,62.1663002 C30.2897026,58.2877904 30.2774644,54.6295694 30.1061287,51.8678013 C30.0418778,50.8357077 29.8838002,49.6373777 29.7032858,48.6817733 C29.6471938,48.3768365 29.4513816,48.0953565 29.4513816,47.8536508 C29.4513816,44.5064856 29.4513816,16.3054467 29.4513816,14.2341205 C29.4513816,11.3662874 32.1366606,10.0108997 34.6067502,16.3054467 C37.0768397,22.5999936 36.3874175,44.9858176 36.3874175,46.5778118 C36.3874175,46.9153839 36.0947191,47.3141473 35.6143672,47.7067916 C35.4226344,47.8312139 35.2553781,47.9566561 35.094241,48.0851579 C33.614431,49.2722695 33.4033209,50.6409153 33.3258119,51.8678013 C33.1412181,54.8376199 32.9923192,58.8436116 32.9535647,63.0464353 L45.2183446,50.7816554 C45.2010071,49.3405998 45.1612328,48.0443637 45.0939223,46.9643369 C45.0684259,46.5502757 44.9654205,46.1290754 44.8868917,45.6854384 C44.6645632,44.4289766 43.1092839,43.3999426 42.2097715,42.4963508 C40.4617395,40.7411798 39.3378589,37.7907384 39.3378589,34.4639704 C39.3378589,29.0617969 42.3321541,22.223667 46.0260701,22.223667 C49.719986,22.223667 52.715301,29.060777 52.715301,34.4639704 C52.715301,37.7907384 51.5914205,40.7421997 49.8433885,42.4963508 C48.9428562,43.3999426 47.3875769,44.4289766 47.1652484,45.6854384 C47.0867196,46.1300953 46.9837142,46.5502757 46.9582178,46.9643369 C46.9174236,47.6139848 46.8878478,48.3462409 46.865411,49.1356089 L64,32 L32,0 L0,32 L19.2273321,51.2273321 C19.2059152,49.7046881 19.1539025,48.3340026 19.0682347,47.1917647 Z"/>
</svg>
